src/utils/remove.svg

<svg stroke="currentColor" fill="currentColor" stroke-width="0" viewBox="0 0 1024 1024" height="2em" width="2em" xmlns="http://www.w3.org/2000/svg"><path d="M880 112H144c-17.7 0-32 14.3-32 32v736c0 17.7 14.3 32 32 32h736c17.7 0 32-14.3 32-32V144c0-17.7-14.3-32-32-32zM704 536c0 4.4-3.6 8-8 8H328c-4.4 0-8-3.6-8-8v-48c0-4.4 3.6-8 8-8h368c4.4 0 8 3.6 8 8v48z"></path></svg>

<?xml version="1.0" encoding="UTF-8" standalone="no" ?>
<!DOCTYPE svg PUBLIC "-//W3C//DTD SVG 1.1//EN" "http://www.w3.org/Graphics/SVG/1.1/DTD/svg11.dtd">
<svg xmlns="http://www.w3.org/2000/svg" xmlns:xlink="http://www.w3.org/1999/xlink" version="1.1" width="2em" height="2em" viewBox="0 0 1080 1080" xml:space="preserve">
<desc>Created with Fabric.js 5.2.4</desc>
<defs>
</defs>
<g transform="matrix(1 0 0 1 540 540)" id="acd97a01-072b-4128-a2d4-14a517445feb"  >
<rect style="stroke: none; stroke-width: 1; stroke-dasharray: none; stroke-linecap: butt; stroke-dashoffset: 0; stroke-linejoin: miter; stroke-miterlimit: 4; fill: rgb(255,255,255); fill-rule: nonzero; opacity: 1; visibility: hidden;" vector-effect="non-scaling-stroke"  x="-540" y="-540" rx="0" ry="0" width="1080" height="1080" />
</g>
<g transform="matrix(1 0 0 1 540 540)" id="4ced039e-8370-40c2-8d77-80c25c0109a3"  >
</g>
<g transform="matrix(1 0 0 1 540 540)" id="d09e5a25-e4fa-452b-8f3c-64c56013be6d"  >
<path style="stroke: rgb(0,0,0); stroke-width: 0; stroke-dasharray: none; stroke-linecap: butt; stroke-dashoffset: 0; stroke-linejoin: miter; stroke-miterlimit: 4; fill: rgb(255,32,32); fill-rule: nonzero; opacity: 1;" vector-effect="non-scaling-stroke"  transform=" translate(-512, -512)" d="M 880 112 L 144 112 C 126.3 112 112 126.3 112 144 L 112 880 C 112 897.7 126.3 912 144 912 L 880 912 C 897.7 912 912 897.7 912 880 L 912 144 C 912 126.3 897.7 112 880 112 z M 704 536 C 704 540.4 700.4 544 696 544 L 328 544 C 323.6 544 320 540.4 320 536 L 320 488 C 320 483.6 323.6 480 328 480 L 696 480 C 700.4 480 704 483.6 704 488 L 704 536 z" stroke-linecap="round" />
</g>
<g transform="matrix(NaN NaN NaN NaN 0 0)"  >
<g style=""   >
</g>
</g>
<g transform="matrix(NaN NaN NaN NaN 0 0)"  >
<g style=""   >
</g>
</g>
</svg>
